jsapp/svg-icons/handle.svg

<svg height="40" viewBox="0 0 40 40" width="40" xmlns="http://www.w3.org/2000/svg"><path d="m17 15c-1.105 0-2-.894-2-2 0-1.105.895-2 2-2 1.104 0 2 .895 2 2 0 1.106-.896 2-2 2zm6 0c-1.105 0-2-.894-2-2 0-1.105.895-2 2-2 1.104 0 2 .895 2 2 0 1.106-.896 2-2 2zm-6 7c-1.105 0-2-.894-2-2 0-1.105.895-2 2-2 1.104 0 2 .895 2 2 0 1.106-.896 2-2 2zm6 0c-1.105 0-2-.894-2-2 0-1.105.895-2 2-2 1.104 0 2 .895 2 2 0 1.106-.896 2-2 2zm-6 7c-1.105 0-2-.894-2-2 0-1.105.895-2 2-2 1.104 0 2 .895 2 2 0 1.106-.896 2-2 2zm6 0c-1.105 0-2-.894-2-2 0-1.105.895-2 2-2 1.104 0 2 .895 2 2 0 1.106-.896 2-2 2z" fill-rule="evenodd"/></svg>

<?xml version="1.0" encoding="UTF-8"?>
<svg width="40px" height="40px" viewBox="0 0 40 40" version="1.1" xmlns="http://www.w3.org/2000/svg" xmlns:xlink="http://www.w3.org/1999/xlink">
    <!-- Generator: Sketch 50.2 (55047) - http://www.bohemiancoding.com/sketch -->
    <title>Icons/handle</title>
    <desc>Created with Sketch.</desc>
    <defs>
        <path d="M17,15 C15.895,15 15,14.106 15,13 C15,11.895 15.895,11 17,11 C18.104,11 19,11.895 19,13 C19,14.106 18.104,15 17,15 Z M23,15 C21.895,15 21,14.106 21,13 C21,11.895 21.895,11 23,11 C24.104,11 25,11.895 25,13 C25,14.106 24.104,15 23,15 Z M17,22 C15.895,22 15,21.106 15,20 C15,18.895 15.895,18 17,18 C18.104,18 19,18.895 19,20 C19,21.106 18.104,22 17,22 Z M23,22 C21.895,22 21,21.106 21,20 C21,18.895 21.895,18 23,18 C24.104,18 25,18.895 25,20 C25,21.106 24.104,22 23,22 Z M17,29 C15.895,29 15,28.106 15,27 C15,25.895 15.895,25 17,25 C18.104,25 19,25.895 19,27 C19,28.106 18.104,29 17,29 Z M23,29 C21.895,29 21,28.106 21,27 C21,25.895 21.895,25 23,25 C24.104,25 25,25.895 25,27 C25,28.106 24.104,29 23,29 Z" id="path-1"></path>
    </defs>
    <g id="Icons/handle" stroke="none" stroke-width="1" fill="none" fill-rule="evenodd">
        <mask id="mask-2" fill="white">
            <use xlink:href="#path-1"></use>
        </mask>
        <use id="Mask" fill="#000000" xlink:href="#path-1"></use>
    </g>
</svg>
